exports/total-disease-burden-by-cause_v3_850x600.svg

<svg xmlns="http://www.w3.org/2000/svg" version="1.1" style="background-color:#fff;-webkit-font-smoothing:antialiased" width="850" height="600" font-family="'Helvetica Neue',Helvetica,Arial,sans-serif" font-size="18" text-rendering="optimizeLegibility"><g class="ChartTab"><g class="HeaderView"><g opacity=".8" transform="matrix(.27 0 0 .27 778 15)"><a xmlns:xlink="http://www.w3.org/1999/xlink" xlink:href="https://ourworldindata.org" target="_blank"><g><path fill="#1B2543" d="M0 0h211.2v130.1H0z"/><path fill="#E63912" d="M0 112.2h211.2v17.9H0z"/><g><path fill="none" d="M1.2 12.3h210.2v99.2H1.2z"/><path fill="#FFF" d="M37.8 32.2c0 12.7-7.7 19.4-17.1 19.4-9.7 0-16.6-7.5-16.6-18.7 0-11.7 7.3-19.3 17.1-19.3 10.1.1 16.6 7.7 16.6 18.6zm-28.6.6c0 7.9 4.3 14.9 11.8 14.9 7.5 0 11.8-6.9 11.8-15.3 0-7.3-3.8-14.9-11.8-14.9-7.9 0-11.8 7.3-11.8 15.3zM62.7 43.8c0 2.7.1 5.1.2 7.2h-4.3l-.3-4.3h-.1c-1.3 2.1-4 4.9-8.8 4.9-4.2 0-9.1-2.3-9.1-11.6V24.6h4.8v14.6c0 5 1.5 8.4 5.9 8.4 3.2 0 5.5-2.2 6.3-4.4.3-.7.4-1.6.4-2.5V24.6h4.8v19.2zM67.3 32.8c0-3.1-.1-5.8-.2-8.2h4.2l.2 5.2h.2c1.2-3.5 4.1-5.8 7.3-5.8.5 0 .9.1 1.4.2v4.5c-.5-.1-1-.2-1.6-.2-3.4 0-5.8 2.6-6.5 6.2-.1.7-.2 1.4-.2 2.2V51h-4.8V32.8zM95.4 51L86 14.2h5l4.4 18.6c1.1 4.6 2.1 9.2 2.7 12.7h.1c.6-3.7 1.8-8 3-12.8l4.9-18.5h5l4.5 18.7c1 4.4 2 8.7 2.6 12.6h.1c.8-4 1.8-8.1 3-12.7l4.9-18.5h4.9L120.6 51h-5L111 31.9c-1.1-4.7-1.9-8.3-2.4-12h-.1c-.7 3.7-1.5 7.3-2.8 12L100.4 51h-5zM154.9 37.6c0 9.8-6.8 14-13.2 14-7.2 0-12.7-5.2-12.7-13.6 0-8.8 5.8-14 13.1-14 7.7 0 12.8 5.5 12.8 13.6zm-21 .3c0 5.8 3.3 10.1 8 10.1 4.6 0 8-4.3 8-10.3 0-4.5-2.2-10.1-7.9-10.1s-8.1 5.2-8.1 10.3zM158.2 32.8c0-3.1-.1-5.8-.2-8.2h4.2l.2 5.2h.2c1.2-3.5 4.1-5.8 7.3-5.8.5 0 .9.1 1.4.2v4.5c-.5-.1-1-.2-1.6-.2-3.4 0-5.8 2.6-6.5 6.2-.1.7-.2 1.4-.2 2.2V51h-4.8V32.8zM173.5 12.3h4.8V51h-4.8V12.3zM206.5 12.3v31.9c0 2.3.1 5 .2 6.8h-4.3l-.2-4.6h-.2c-1.5 2.9-4.7 5.2-9 5.2-6.4 0-11.3-5.4-11.3-13.4-.1-8.8 5.4-14.2 11.9-14.2 4 0 6.8 1.9 8 4h.1V12.3h4.8zm-4.8 23.1c0-.6-.1-1.4-.2-2a7 7 0 00-6.9-5.6c-5 0-7.9 4.4-7.9 10.2 0 5.3 2.6 9.8 7.8 9.8 3.2 0 6.2-2.1 7.1-5.7.2-.7.2-1.3.2-2.1v-4.6zM42.8 64c.1 1.6-1.1 2.9-3.1 2.9-1.7 0-2.9-1.3-2.9-2.9 0-1.7 1.3-3 3-3 1.9 0 3 1.3 3 3zm-5.4 33.8V71.4h4.8v26.4h-4.8zM47.5 78.6c0-2.7-.1-5-.2-7.1h4.3l.3 4.4h.1c1.3-2.5 4.4-5 8.8-5 3.7 0 9.4 2.2 9.4 11.2v15.8h-4.8V82.6c0-4.3-1.6-7.8-6.1-7.8-3.2 0-5.6 2.2-6.5 4.9-.2.6-.3 1.4-.3 2.2v15.9h-4.8V78.6zM84 61.6c2.9-.4 6.3-.8 10.1-.8 6.8 0 11.7 1.6 14.9 4.6 3.3 3 5.2 7.3 5.2 13.2 0 6-1.9 10.9-5.3 14.3-3.4 3.4-9.1 5.3-16.3 5.3-3.4 0-6.2-.2-8.6-.4V61.6zm4.8 32.5c1.2.2 3 .3 4.8.3 10.2 0 15.7-5.7 15.7-15.6.1-8.7-4.9-14.2-14.9-14.2-2.5 0-4.3.2-5.6.5v29zM132.1 97.8l-.4-3.3h-.2a9.79 9.79 0 01-8.1 3.9c-5.4 0-8.1-3.8-8.1-7.6 0-6.4 5.7-9.9 15.9-9.8v-.5c0-2.2-.6-6.1-6-6.1-2.5 0-5 .8-6.9 2l-1.1-3.2c2.2-1.4 5.4-2.3 8.7-2.3 8.1 0 10.1 5.5 10.1 10.8v9.9c0 2.3.1 4.5.4 6.3h-4.3zm-.7-13.4c-5.3-.1-11.2.8-11.2 5.9 0 3.1 2.1 4.6 4.5 4.6 3.4 0 5.6-2.2 6.4-4.4.2-.5.3-1 .3-1.5v-4.6zM146.6 63.9v7.6h6.9v3.7h-6.9v14.2c0 3.3.9 5.1 3.6 5.1 1.3 0 2.2-.2 2.8-.3l.2 3.6c-.9.4-2.4.7-4.3.7-2.2 0-4-.7-5.2-2-1.4-1.4-1.9-3.8-1.9-6.9V75.1h-4.1v-3.7h4.1v-6.3l4.8-1.2zM171.4 97.8l-.4-3.3h-.2a9.79 9.79 0 01-8.1 3.9c-5.4 0-8.1-3.8-8.1-7.6 0-6.4 5.7-9.9 15.9-9.8v-.5c0-2.2-.6-6.1-6-6.1-2.5 0-5 .8-6.9 2l-1.1-3.2c2.2-1.4 5.4-2.3 8.7-2.3 8.1 0 10.1 5.5 10.1 10.8v9.9c0 2.3.1 4.5.4 6.3h-4.3zm-.7-13.4c-5.3-.1-11.2.8-11.2 5.9 0 3.1 2.1 4.6 4.5 4.6 3.4 0 5.6-2.2 6.4-4.4.2-.5.3-1 .3-1.5v-4.6z"/></g></g></a></g><a href="https://ourworldindata.org/grapher/total-disease-burden-by-cause" target="_blank"><text font-size="25.2" x="15" y="35.2" fill="#555"><tspan x="15" y="35.16">Total disease burden by cause, World</tspan></text></a><text font-size="14.4" x="15" y="53.7" fill="#666"><tspan x="15" y="53.72">Total disease burden measured as the number of DALYs (Disability-Adjusted Life Years) per year. DALYs are used to</tspan><tspan x="15" y="69.56">measure total burden of disease - both from years of life lost and years lived with a disability. One DALY equals one</tspan><tspan x="15" y="85.4">lost year of healthy life.</tspan></text></g><g class="StackedArea"><defs><clipPath id="a"><path d="M97.6 0h820v897.8h-820z"/></clipPath></defs><g class="AxisBoxView"><g class="HorizontalAxis" fill="#666" text-anchor="middle" font-size="16.2"><text x="97.6" y="556.5">1990</text><text x="210.3" y="556.5">1995</text><text x="322.9" y="556.5">2000</text><text x="435.6" y="556.5">2005</text><text x="548.3" y="556.5">2010</text><text x="683.5" y="556.5">2016</text></g><g class="VerticalAxis" fill="#666" dominant-baseline="middle" text-anchor="end" font-size="16.2"><text x="92.6" y="535.3">0</text><text x="92.6" y="450.4">500 million</text><text x="92.6" y="365.6">1 billion</text><text x="92.6" y="280.7">1.5 billion</text><text x="92.6" y="195.9">2 billion</text><text x="92.6" y="111">2.5 billion</text></g><g class="AxisGridLines"><path stroke="#ccc" d="M97.6 535.3h585.9"/><path stroke="#ddd" stroke-dasharray="3,2" d="M97.6 450.4h585.9M97.6 365.6h585.9M97.6 280.7h585.9M97.6 195.9h585.9M97.6 111h585.9"/></g></g><g clip-path="url(#a)"><g class="HeightedLegend clickable"><g class="legendMark"><text font-size="13.5" x="688.5" y="155.3" fill="#818282"><tspan x="688.5" y="155.25">Injuries</tspan></text></g><g class="legendMark"><text font-size="13.5" x="688.5" y="204.4" fill="#e6332e"><tspan x="688.5" y="204.35">Communicable,</tspan><tspan x="688.5" y="219.2">maternal,</tspan><tspan x="688.5" y="234.05">neonatal, and</tspan><tspan x="688.5" y="248.9">nutritional</tspan><tspan x="688.5" y="263.75">diseases</tspan></text></g><g class="legendMark"><text font-size="13.5" x="688.5" y="407.4" fill="#3360a9"><tspan x="688.5" y="407.45">Non-communicable</tspan><tspan x="688.5" y="422.3">diseases (NCDs)</tspan></text></g></g><g class="Areas"><path d="M97.6 352.9l22.5-2.4 22.6-3.4 22.5-4.1 22.5-3.7 22.6-2.6 22.5-1.7 22.5-1.9 22.6-2.1 22.5-3 22.5-3 22.6-2.4L368 320l22.5-1.9 22.6-1.8 22.5-2.6 22.6-1.1 22.5-1.7 22.5-2.5 22.6-2.3 22.5-2.8 22.5-1.9 22.6-2.5 22.5-2.9 22.5-3.3 22.6-3.2 22.5-3.3v249.1H97.6" fill="#3360a9" fill-opacity=".7" class="World_0-area"/><path d="M97.6 163.9l22.5-.2 22.6-1 22.5-2.1 22.5-2 22.6-2 22.5.2 22.5.4 22.6-.3 22.5-1.5 22.5-1.7 22.6-.4 22.5-.8 22.5 1 22.6.8 22.5.1 22.6 2.3 22.5 1.9 22.5 1.3 22.6 1.4 22.5.8 22.5 2.8 22.6 2.3 22.5 1.9 22.5 1.3 22.6 1.8 22.5.6v113.4l-22.5 3.3-22.6 3.2-22.5 3.3-22.5 2.9-22.6 2.5-22.5 1.9-22.5 2.8-22.6 2.3-22.5 2.5-22.5 1.7-22.6 1.1-22.5 2.6-22.6 1.8L368 320l-22.5 2.6-22.6 2.4-22.5 3-22.5 3-22.6 2.1-22.5 1.9-22.5 1.7-22.6 2.6-22.5 3.7-22.5 4.1-22.6 3.4-22.5 2.4" fill="#e6332e" fill-opacity=".7" class="World_1-area"/><path d="M97.6 119.8l22.5-1.5 22.6.4 22.5-3 22.5-7.8 22.6 3.3h22.5l22.5.6 22.6-.6 22.5-1.9 22.5-.8h22.6l22.5-.7 22.5.7 22.6-.9 22.5 1.9 22.6 3.1 22.5 1.7 22.5-.5 22.6 3.6 22.5-.8 22.5 4.3 22.6 2.4 22.5 1.9 22.5 1.1L661 128l22.5 1.5v43.3l-22.5-.6-22.6-1.8-22.5-1.3-22.5-1.9-22.6-2.3-22.5-2.8-22.5-.8-22.6-1.4-22.5-1.3-22.5-1.9-22.6-2.3-22.5-.1-22.6-.8-22.5-1-22.5.8-22.6.4-22.5 1.7-22.5 1.5-22.6.3-22.5-.4-22.5-.2-22.6 2-22.5 2-22.5 2.1-22.6 1-22.5.2" fill="#818282" fill-opacity=".7" class="World_2-area"/><path stroke-linecap="round" d="M97.6 352.9l22.5-2.4 22.6-3.4 22.5-4.1 22.5-3.7 22.6-2.6 22.5-1.7 22.5-1.9 22.6-2.1 22.5-3 22.5-3 22.6-2.4L368 320l22.5-1.9 22.6-1.8 22.5-2.6 22.6-1.1 22.5-1.7 22.5-2.5 22.6-2.3 22.5-2.8 22.5-1.9 22.6-2.5 22.5-2.9 22.5-3.3 22.6-3.2 22.5-3.3" stroke="#2B508D" stroke-opacity=".7" stroke-width=".5" fill="none" class="World_0-border"/><path stroke-linecap="round" d="M97.6 163.9l22.5-.2 22.6-1 22.5-2.1 22.5-2 22.6-2 22.5.2 22.5.4 22.6-.3 22.5-1.5 22.5-1.7 22.6-.4 22.5-.8 22.5 1 22.6.8 22.5.1 22.6 2.3 22.5 1.9 22.5 1.3 22.6 1.4 22.5.8 22.5 2.8 22.6 2.3 22.5 1.9 22.5 1.3 22.6 1.8 22.5.6" stroke="#C02B26" stroke-opacity=".7" stroke-width=".5" fill="none" class="World_1-border"/><path stroke-linecap="round" d="M97.6 119.8l22.5-1.5 22.6.4 22.5-3 22.5-7.8 22.6 3.3h22.5l22.5.6 22.6-.6 22.5-1.9 22.5-.8h22.6l22.5-.7 22.5.7 22.6-.9 22.5 1.9 22.6 3.1 22.5 1.7 22.5-.5 22.6 3.6 22.5-.8 22.5 4.3 22.6 2.4 22.5 1.9 22.5 1.1L661 128l22.5 1.5" stroke="#6C6D6D" stroke-opacity=".7" stroke-width=".5" fill="none" class="World_2-border"/></g></g></g><g class="SourcesFooter" fill="#777"><g class="clickable" fill="#777"><text font-size="12.6" x="15" y="581.6"><tspan x="15" y="581.58">Source: IHME, Global Burden of Disease</tspan></text></g><text font-size="12.6" x="775.4" y="581.6"><tspan x="775.4" y="581.58"><a class="cclogo" href="http://creativecommons.org/licenses/by-sa/4.0/deed.en_US" target="_blank" fill="#777">CC BY-SA</a></tspan></text></g></g></svg>

<svg xmlns="http://www.w3.org/2000/svg" version="1.1" style="font-family: 'Helvetica Neue', Helvetica, Arial, sans-serif; font-size: 18px; background-color: white; text-rendering: optimizeLegibility; -webkit-font-smoothing: antialiased;" width="850" height="600"><g class="ChartTab"><g class="HeaderView"><g opacity="0.8" transform="translate(778, 15) scale(0.27)"><a xmlns:xlink="http://www.w3.org/1999/xlink" xlink:href="https://ourworldindata.org" target="_blank"><g><rect x="0" y="0" fill="#1B2543" width="211.2" height="130.1"/><rect x="0" y="112.2" fill="#E63912" width="211.2" height="17.9"/><g><rect x="1.2" y="12.3" fill="none" width="210.2" height="99.2"/><path fill="#FFFFFF" d="M37.8,32.2c0,12.7-7.7,19.4-17.1,19.4c-9.7,0-16.6-7.5-16.6-18.7c0-11.7,7.3-19.3,17.1-19.3 C31.3,13.7,37.8,21.3,37.8,32.2z M9.2,32.8c0,7.9,4.3,14.9,11.8,14.9c7.5,0,11.8-6.9,11.8-15.3c0-7.3-3.8-14.9-11.8-14.9 C13.1,17.5,9.2,24.8,9.2,32.8z"/><path fill="#FFFFFF" d="M62.7,43.8c0,2.7,0.1,5.1,0.2,7.2h-4.3l-0.3-4.3h-0.1c-1.3,2.1-4,4.9-8.8,4.9c-4.2,0-9.1-2.3-9.1-11.6 V24.6h4.8v14.6c0,5,1.5,8.4,5.9,8.4c3.2,0,5.5-2.2,6.3-4.4c0.3-0.7,0.4-1.6,0.4-2.5V24.6h4.8V43.8z"/><path fill="#FFFFFF" d="M67.3,32.8c0-3.1-0.1-5.8-0.2-8.2h4.2l0.2,5.2h0.2c1.2-3.5,4.1-5.8,7.3-5.8c0.5,0,0.9,0.1,1.4,0.2v4.5 c-0.5-0.1-1-0.2-1.6-0.2c-3.4,0-5.8,2.6-6.5,6.2c-0.1,0.7-0.2,1.4-0.2,2.2V51h-4.8V32.8z"/><path fill="#FFFFFF" d="M95.4,51l-9.4-36.8h5l4.4,18.6c1.1,4.6,2.1,9.2,2.7,12.7h0.1c0.6-3.7,1.8-8,3-12.8l4.9-18.5h5l4.5,18.7 c1,4.4,2,8.7,2.6,12.6h0.1c0.8-4,1.8-8.1,3-12.7l4.9-18.5h4.9L120.6,51h-5L111,31.9c-1.1-4.7-1.9-8.3-2.4-12h-0.1 c-0.7,3.7-1.5,7.3-2.8,12L100.4,51H95.4z"/><path fill="#FFFFFF" d="M154.9,37.6c0,9.8-6.8,14-13.2,14c-7.2,0-12.7-5.2-12.7-13.6c0-8.8,5.8-14,13.1-14 C149.8,24,154.9,29.5,154.9,37.6z M133.9,37.9c0,5.8,3.3,10.1,8,10.1c4.6,0,8-4.3,8-10.3c0-4.5-2.2-10.1-7.9-10.1 C136.3,27.6,133.9,32.8,133.9,37.9z"/><path fill="#FFFFFF" d="M158.2,32.8c0-3.1-0.1-5.8-0.2-8.2h4.2l0.2,5.2h0.2c1.2-3.5,4.1-5.8,7.3-5.8c0.5,0,0.9,0.1,1.4,0.2v4.5 c-0.5-0.1-1-0.2-1.6-0.2c-3.4,0-5.8,2.6-6.5,6.2c-0.1,0.7-0.2,1.4-0.2,2.2V51h-4.8V32.8z"/><path fill="#FFFFFF" d="M173.5,12.3h4.8V51h-4.8V12.3z"/><path fill="#FFFFFF" d="M206.5,12.3v31.9c0,2.3,0.1,5,0.2,6.8h-4.3l-0.2-4.6H202c-1.5,2.9-4.7,5.2-9,5.2 c-6.4,0-11.3-5.4-11.3-13.4c-0.1-8.8,5.4-14.2,11.9-14.2c4,0,6.8,1.9,8,4h0.1V12.3H206.5z M201.7,35.4c0-0.6-0.1-1.4-0.2-2 c-0.7-3.1-3.3-5.6-6.9-5.6c-5,0-7.9,4.4-7.9,10.2c0,5.3,2.6,9.8,7.8,9.8c3.2,0,6.2-2.1,7.1-5.7c0.2-0.7,0.2-1.3,0.2-2.1V35.4z"/><path fill="#FFFFFF" d="M42.8,64c0.1,1.6-1.1,2.9-3.1,2.9c-1.7,0-2.9-1.3-2.9-2.9c0-1.7,1.3-3,3-3C41.7,61,42.8,62.3,42.8,64z M37.4,97.8V71.4h4.8v26.4H37.4z"/><path fill="#FFFFFF" d="M47.5,78.6c0-2.7-0.1-5-0.2-7.1h4.3l0.3,4.4h0.1c1.3-2.5,4.4-5,8.8-5c3.7,0,9.4,2.2,9.4,11.2v15.8h-4.8 V82.6c0-4.3-1.6-7.8-6.1-7.8c-3.2,0-5.6,2.2-6.5,4.9c-0.2,0.6-0.3,1.4-0.3,2.2v15.9h-4.8V78.6z"/><path fill="#FFFFFF" d="M84,61.6c2.9-0.4,6.3-0.8,10.1-0.8c6.8,0,11.7,1.6,14.9,4.6c3.3,3,5.2,7.3,5.2,13.2c0,6-1.9,10.9-5.3,14.3 c-3.4,3.4-9.1,5.3-16.3,5.3c-3.4,0-6.2-0.2-8.6-0.4V61.6z M88.8,94.1c1.2,0.2,3,0.3,4.8,0.3c10.2,0,15.7-5.7,15.7-15.6 c0.1-8.7-4.9-14.2-14.9-14.2c-2.5,0-4.3,0.2-5.6,0.5V94.1z"/><path fill="#FFFFFF" d="M132.1,97.8l-0.4-3.3h-0.2c-1.5,2.1-4.3,3.9-8.1,3.9c-5.4,0-8.1-3.8-8.1-7.6c0-6.4,5.7-9.9,15.9-9.8v-0.5 c0-2.2-0.6-6.1-6-6.1c-2.5,0-5,0.8-6.9,2l-1.1-3.2c2.2-1.4,5.4-2.3,8.7-2.3c8.1,0,10.1,5.5,10.1,10.8v9.9c0,2.3,0.1,4.5,0.4,6.3 H132.1z M131.4,84.4c-5.3-0.1-11.2,0.8-11.2,5.9c0,3.1,2.1,4.6,4.5,4.6c3.4,0,5.6-2.2,6.4-4.4c0.2-0.5,0.3-1,0.3-1.5V84.4z"/><path fill="#FFFFFF" d="M146.6,63.9v7.6h6.9v3.7h-6.9v14.2c0,3.3,0.9,5.1,3.6,5.1c1.3,0,2.2-0.2,2.8-0.3l0.2,3.6 c-0.9,0.4-2.4,0.7-4.3,0.7c-2.2,0-4-0.7-5.2-2c-1.4-1.4-1.9-3.8-1.9-6.9V75.1h-4.1v-3.7h4.1v-6.3L146.6,63.9z"/><path fill="#FFFFFF" d="M171.4,97.8l-0.4-3.3h-0.2c-1.5,2.1-4.3,3.9-8.1,3.9c-5.4,0-8.1-3.8-8.1-7.6c0-6.4,5.7-9.9,15.9-9.8v-0.5 c0-2.2-0.6-6.1-6-6.1c-2.5,0-5,0.8-6.9,2l-1.1-3.2c2.2-1.4,5.4-2.3,8.7-2.3c8.1,0,10.1,5.5,10.1,10.8v9.9c0,2.3,0.1,4.5,0.4,6.3 H171.4z M170.7,84.4c-5.3-0.1-11.2,0.8-11.2,5.9c0,3.1,2.1,4.6,4.5,4.6c3.4,0,5.6-2.2,6.4-4.4c0.2-0.5,0.3-1,0.3-1.5V84.4z"/></g></g></a></g><a href="https://ourworldindata.org/grapher/total-disease-burden-by-cause" target="_blank"><text font-size="25.20" x="15.0" y="35.2" fill="#555"><tspan x="15" y="35.160000000000004">Total disease burden by cause, World</tspan></text></a><text font-size="14.40" x="15.0" y="53.7" fill="#666"><tspan x="15" y="53.72">Total disease burden measured as the number of DALYs (Disability-Adjusted Life Years) per year. DALYs are used to</tspan><tspan x="15" y="69.56">measure total burden of disease - both from years of life lost and years lived with a disability. One DALY equals one</tspan><tspan x="15" y="85.4">lost year of healthy life.</tspan></text></g><g class="StackedArea"><defs><clipPath id="boundsClip-91"><rect x="97.598" y="0" width="820" height="897.8"></rect></clipPath></defs><g class="AxisBoxView"><g class="HorizontalAxis"><text x="97.6" y="556.5" fill="#666" text-anchor="middle" font-size="16.2">1990</text><text x="210.3" y="556.5" fill="#666" text-anchor="middle" font-size="16.2">1995</text><text x="322.9" y="556.5" fill="#666" text-anchor="middle" font-size="16.2">2000</text><text x="435.6" y="556.5" fill="#666" text-anchor="middle" font-size="16.2">2005</text><text x="548.3" y="556.5" fill="#666" text-anchor="middle" font-size="16.2">2010</text><text x="683.5" y="556.5" fill="#666" text-anchor="middle" font-size="16.2">2016</text></g><g class="VerticalAxis"><text x="92.60" y="535.3" fill="#666" dominant-baseline="middle" text-anchor="end" font-size="16.2">0</text><text x="92.60" y="450.4" fill="#666" dominant-baseline="middle" text-anchor="end" font-size="16.2">500 million</text><text x="92.60" y="365.6" fill="#666" dominant-baseline="middle" text-anchor="end" font-size="16.2">1 billion</text><text x="92.60" y="280.7" fill="#666" dominant-baseline="middle" text-anchor="end" font-size="16.2">1.5 billion</text><text x="92.60" y="195.9" fill="#666" dominant-baseline="middle" text-anchor="end" font-size="16.2">2 billion</text><text x="92.60" y="111" fill="#666" dominant-baseline="middle" text-anchor="end" font-size="16.2">2.5 billion</text></g><g class="AxisGridLines"><line x1="97.60" y1="535.3" x2="683.50" y2="535.3" stroke="#ccc"></line><line x1="97.60" y1="450.4" x2="683.50" y2="450.4" stroke="#ddd" stroke-dasharray="3,2"></line><line x1="97.60" y1="365.6" x2="683.50" y2="365.6" stroke="#ddd" stroke-dasharray="3,2"></line><line x1="97.60" y1="280.7" x2="683.50" y2="280.7" stroke="#ddd" stroke-dasharray="3,2"></line><line x1="97.60" y1="195.9" x2="683.50" y2="195.9" stroke="#ddd" stroke-dasharray="3,2"></line><line x1="97.60" y1="111" x2="683.50" y2="111" stroke="#ddd" stroke-dasharray="3,2"></line></g></g><g clip-path="url(#boundsClip-91)"><g class="HeightedLegend clickable"><g class="legendMark"><rect x="683.495" y="144.45" width="78.605" height="13.5" fill="#fff" opacity="0"></rect><text font-size="13.50" x="688.5" y="155.3" fill="#818282"><tspan x="688.495" y="155.25">Injuries</tspan></text></g><g class="legendMark"><rect x="683.495" y="193.55" width="128.96" height="71.9" fill="#fff" opacity="0"></rect><text font-size="13.50" x="688.5" y="204.4" fill="#e6332e"><tspan x="688.495" y="204.35000000000002">Communicable,</tspan><tspan x="688.495" y="219.20000000000002">maternal,</tspan><tspan x="688.495" y="234.05">neonatal, and</tspan><tspan x="688.495" y="248.90000000000003">nutritional</tspan><tspan x="688.495" y="263.75">diseases</tspan></text></g><g class="legendMark"><rect x="683.495" y="396.65" width="151.505" height="28.1" fill="#fff" opacity="0"></rect><text font-size="13.50" x="688.5" y="407.4" fill="#3360a9"><tspan x="688.495" y="407.45">Non-communicable</tspan><tspan x="688.495" y="422.3">diseases (NCDs)</tspan></text></g></g><g class="Areas"><rect x="97.598" y="107.60000000000001" width="585.897" height="427.69999999999993" opacity="0" fill="rgba(255,255,255,0)"></rect><path stroke-linecap="round" d="M97.6 352.9L120.1 350.5L142.7 347.1L165.2 343L187.7 339.3L210.3 336.7L232.8 335L255.3 333.1L277.9 331L300.4 328L322.9 325L345.5 322.6L368 320L390.5 318.1L413.1 316.3L435.6 313.7L458.2 312.6L480.7 310.9L503.2 308.4L525.8 306.1L548.3 303.3L570.8 301.4L593.4 298.9L615.9 296L638.4 292.7L661 289.5L683.5 286.2L683.495 535.3L97.598 535.3" fill="#3360a9" fill-opacity="0.7" class="World_0-area"></path><path stroke-linecap="round" d="M97.6 163.9L120.1 163.7L142.7 162.7L165.2 160.6L187.7 158.6L210.3 156.6L232.8 156.8L255.3 157.2L277.9 156.9L300.4 155.4L322.9 153.7L345.5 153.3L368 152.5L390.5 153.5L413.1 154.3L435.6 154.4L458.2 156.7L480.7 158.6L503.2 159.9L525.8 161.3L548.3 162.1L570.8 164.9L593.4 167.2L615.9 169.1L638.4 170.4L661 172.2L683.5 172.8L683.5 286.2L661 289.5L638.4 292.7L615.9 296L593.4 298.9L570.8 301.4L548.3 303.3L525.8 306.1L503.2 308.4L480.7 310.9L458.2 312.6L435.6 313.7L413.1 316.3L390.5 318.1L368 320L345.5 322.6L322.9 325L300.4 328L277.9 331L255.3 333.1L232.8 335L210.3 336.7L187.7 339.3L165.2 343L142.7 347.1L120.1 350.5L97.6 352.9" fill="#e6332e" fill-opacity="0.7" class="World_1-area"></path><path stroke-linecap="round" d="M97.6 119.8L120.1 118.3L142.7 118.7L165.2 115.7L187.7 107.9L210.3 111.2L232.8 111.2L255.3 111.8L277.9 111.2L300.4 109.3L322.9 108.5L345.5 108.5L368 107.8L390.5 108.5L413.1 107.6L435.6 109.5L458.2 112.6L480.7 114.3L503.2 113.8L525.8 117.4L548.3 116.6L570.8 120.9L593.4 123.3L615.9 125.2L638.4 126.3L661 128L683.5 129.5L683.5 172.8L661 172.2L638.4 170.4L615.9 169.1L593.4 167.2L570.8 164.9L548.3 162.1L525.8 161.3L503.2 159.9L480.7 158.6L458.2 156.7L435.6 154.4L413.1 154.3L390.5 153.5L368 152.5L345.5 153.3L322.9 153.7L300.4 155.4L277.9 156.9L255.3 157.2L232.8 156.8L210.3 156.6L187.7 158.6L165.2 160.6L142.7 162.7L120.1 163.7L97.6 163.9" fill="#818282" fill-opacity="0.7" class="World_2-area"></path><path stroke-linecap="round" d="M97.6 352.9L120.1 350.5L142.7 347.1L165.2 343L187.7 339.3L210.3 336.7L232.8 335L255.3 333.1L277.9 331L300.4 328L322.9 325L345.5 322.6L368 320L390.5 318.1L413.1 316.3L435.6 313.7L458.2 312.6L480.7 310.9L503.2 308.4L525.8 306.1L548.3 303.3L570.8 301.4L593.4 298.9L615.9 296L638.4 292.7L661 289.5L683.5 286.2" stroke="rgb(43, 80, 141)" stroke-opacity="0.7" stroke-width="0.5" fill="none" class="World_0-border"></path><path stroke-linecap="round" d="M97.6 163.9L120.1 163.7L142.7 162.7L165.2 160.6L187.7 158.6L210.3 156.6L232.8 156.8L255.3 157.2L277.9 156.9L300.4 155.4L322.9 153.7L345.5 153.3L368 152.5L390.5 153.5L413.1 154.3L435.6 154.4L458.2 156.7L480.7 158.6L503.2 159.9L525.8 161.3L548.3 162.1L570.8 164.9L593.4 167.2L615.9 169.1L638.4 170.4L661 172.2L683.5 172.8" stroke="rgb(192, 43, 38)" stroke-opacity="0.7" stroke-width="0.5" fill="none" class="World_1-border"></path><path stroke-linecap="round" d="M97.6 119.8L120.1 118.3L142.7 118.7L165.2 115.7L187.7 107.9L210.3 111.2L232.8 111.2L255.3 111.8L277.9 111.2L300.4 109.3L322.9 108.5L345.5 108.5L368 107.8L390.5 108.5L413.1 107.6L435.6 109.5L458.2 112.6L480.7 114.3L503.2 113.8L525.8 117.4L548.3 116.6L570.8 120.9L593.4 123.3L615.9 125.2L638.4 126.3L661 128L683.5 129.5" stroke="rgb(108, 109, 109)" stroke-opacity="0.7" stroke-width="0.5" fill="none" class="World_2-border"></path></g></g></g><g style="fill: #777;" class="SourcesFooter"><g style="fill: #777;" class="clickable"><text font-size="12.60" x="15.0" y="581.6"><tspan x="15" y="581.58">Source: IHME, Global Burden of Disease</tspan></text></g><text font-size="12.60" x="775.4" y="581.6"><tspan x="775.402" y="581.58"><a style="fill: #777;" class="cclogo" href="http://creativecommons.org/licenses/by-sa/4.0/deed.en_US" target="_blank">CC BY-SA</a></tspan></text></g></g></svg>
